!!!OTL: UND SCHAU ICH HIN SO SCHAUST DU HER
!!!ARE: Europa, Mitteleuropa, Deutschland
!!!SCT: F0019
!!!YEM: Copyright 1995, estate of Helmut Schaffrath.
**kern
*ICvox
*Ivox
*M2/4
*k[]
*C:
{8G
=1
8F#
8G
8A
8G
=2
8F#
8G
8A}
{8G
=3
8G
8F
8d
8F
=4
8F
8E
8c}
{8G
=5
8F#
8G
8A
8G
=6
8F#
8G
8A}
{8G
=7
8G
8F
8.f
16B
=8
4c
4r}
=9
{4D
4G
=10
4.B}
{16B
16c
=11
8B
8A
8A
16A
16B
=12
8A
8G
8G}
{16B
16c
=13
8B
8A
8A
16A
16B
=14
8A
8G
8G}
{16B
16c
=15
8B
8A
8.e
16d
=16
4G
8r}
{8G
=17
8F#
8G
8A
8G
=18
8F#
8G
8A}
{8G
=19
8G
8F
8d
8F
=20
8F
8E
8c}
{8G
=21
8F#
8G
8A
8G
=22
8F#
8G
8A}
{8G
=23
8G
8F
8.f
16B
=24
4c
8r}
==
!!!AGN: Liebes - Lied, Klage, Schmerz
!!!ONB: ESAC (Essen Associative Code) Database: FINK
!!!AMT: simple duple
!!!AIN: vox
!!!EED: Helmut Schaffrath
!!!EEV: 1.0
*-
